X:46
T:Village Maid
N:page 26 on manuscript
M:2/4
L:1/8
K:F
F/E/F/G/ FA | GF F2 | A/G/A/B/ Ac | BA A2 | ce/d/ cg/e/ | ca/f/ ca | bgfe | f2 F2 H:||: af de/f/ |
ge cd/e/ | fdc=B | c/=B/c/d/ cc | af de/f/ | ge cd/e/ | fdc=B | c2 c2 :||: Cc/=B/ c_B | Afef |
C(c/=B/) c_B | Afef | dbbb | caaa | g/a/g/f/ e/f/e/d/ | c/d/c/B/ A/B/A/G/ +D.C.+|]

